assets/assets/svgs/app_store.svg

<svg xmlns="http://www.w3.org/2000/svg" viewBox="0 0 120 120" id="app-store"><defs><linearGradient id="a" x1="-1315.782" x2="-1195.782" y1="529.793" y2="529.793" gradientTransform="rotate(-90 -832.788 -362.994)" gradientUnits="userSpaceOnUse"><stop offset="0" stop-color="#1d6ff2"></stop><stop offset="1" stop-color="#1ac8fc"></stop></linearGradient></defs><path fill="url(#a)" fill-rule="evenodd" d="M120,26V94a25.94821,25.94821,0,0,1-26,26H26A25.94821,25.94821,0,0,1,0,94V26A25.94821,25.94821,0,0,1,26,0H94A25.94821,25.94821,0,0,1,120,26Z"></path><path fill="#fff" fill-rule="evenodd" d="M82.6,69H97.5a5.5,5.5,0,0,1,0,11H82.6Z"></path><path fill="#fff" fill-rule="evenodd" d="M64.3 69a7.85317 7.85317 0 0 1 7.9 7.9 8.14893 8.14893 0 0 1-.6 3.1H22.5a5.5 5.5 0 0 1 0-11zM62.9 32.8v9.6H56.5L48.7 29a5.19712 5.19712 0 1 1 9-5.2zM68.4 42.1L95.7 89.4a5.48862 5.48862 0 0 1-9.5 5.5L69.7 66.2c-1.5-2.8-2.6-5-3.3-6.2A15.03868 15.03868 0 0 1 68.4 42.1z"></path><g><path fill="#fff" fill-rule="evenodd" d="M46 74H33.3L62 24.3a5.48862 5.48862 0 0 1 9.5 5.5zM39.3 85.5L34 94.8a5.48862 5.48862 0 1 1-9.5-5.5l3.9-6.8a8.59835 8.59835 0 0 1 3.9-.9A7.77814 7.77814 0 0 1 39.3 85.5z"></path></g></svg>

<svg xmlns="http://www.w3.org/2000/svg" viewBox="0 0 120 120" xmlns:v="https://vecta.io/nano"><defs><linearGradient id="A" x1="59.999" x2="59.999" y1="120" y2="0" gradientUnits="userSpaceOnUse"><stop offset="0" stop-color="#1d6ff2"/><stop offset="1" stop-color="#1ac8fc"/></linearGradient></defs><g fill-rule="evenodd"><path fill="url(#A)" d="M120 26v68a25.948 25.948 0 0 1-26 26H26A25.948 25.948 0 0 1 0 94V26A25.948 25.948 0 0 1 26 0h68a25.948 25.948 0 0 1 26 26z"/><g fill="#fff"><path d="M82.6,69H97.5a5.5,5.5,0,0,1,0,11H82.6Z"/><path d="M64.3 69a7.853 7.853 0 0 1 7.9 7.9 8.149 8.149 0 0 1-.6 3.1H22.5a5.5 5.5 0 0 1 0-11zm-1.4-36.2v9.6h-6.4L48.7 29a5.197 5.197 0 1 1 9-5.2zm5.5 9.3l27.3 47.3a5.489 5.489 0 0 1-9.5 5.5L69.7 66.2 66.4 60a15.039 15.039 0 0 1 2-17.9z"/><path d="M46 74H33.3L62 24.3a5.489 5.489 0 0 1 9.5 5.5zm-6.7 11.5L34 94.8a5.489 5.489 0 1 1-9.5-5.5l3.9-6.8a8.598 8.598 0 0 1 3.9-.9 7.778 7.778 0 0 1 7 3.9z"/></g></g></svg>
